!! 00000] TT[WS
!!!OTL: Liao gege
!!!ARE: Asia, China, Shanxi Lishan
!! Ethnic Group: Han
!! WI, 273
!!!SCT: J0326
!!!YEM: Copyright 1995, estate of Helmut Schaffrath.
**kern
*ICvox
*Ivox
*M2/4
*k[b-e-]
*B-:
{8ddd
4fff
8ggg
=1
4fff
8ddd
8ccc
=2
8fff
4ccc
8bb-
=3
8gg
4.ff}
=4
{8gg
4bb-
8ccc
=5
4fff
8ggg
8ddd
=6
4ff
16ccc
16ddd
16ccc
16bb-}
=7
{8ccc
8ddd
8bb-
8gg
=8
4ff
8bb-
8ccc
=9
4fff
8ddd
8fff}
=10
{8ccc
8ddd
8bb-
8gg
=11
8ff
4ff
8bb-
=12
8ccc
8ddd
8bb-
8gg
=13
2ff}
==
!!!AGN: Xiaodiao. Qingge
!!!ONB: ESAC (Essen Associative Code) Database: CHINA
!!!AMT: simple duple
!!!AIN: vox
!!!EED: Helmut Schaffrath
!!!EEV: 1.0
*-
